X:13
T:Breeches Full of Stitches (polka)
I:titlefont Times-Roman 24
I:partsfont Times-Roman 20
M:2/4
L:1/8
O:Trad. (3.9.2014/NS)
K:Gmaj
|:"G"G>A BG |AG BG| G>A BG |"C"AG E2|
"G"G>A BG |AG Bd| G>A GE |"D"ED D2:|
|:"G"d>e dB |"C"AG AB| "G"d>e dB |"D"AG E2|
"G"d>e dB |"C"AG AB| "G"G>A GE |"D"ED D2:|
%%vskip
%%vskip
P:The Top of Maol
K:Em
"Em"E2EF/A/|BAFA
%%begintext
|: Em   || D        ||
|  Em   || D        | Em    :|
|: Em   || D        ||
|  C      || G  D   | Em    :|
%%endtext
%%vskip
%%vskip
P:Bill Sullivan's
K:Gmaj
"G"g2g>e|dB g>e
%%begintext
|: G    ||            ||
||         ||        :|
|: G    | C     | G        | D     |
|  G    | C     | G  D   | G    :|
%%endtext

